X:1
T:Snowden, 884.884
T:Snowden, 884.884
T:Robert B. Robertson, before 1913
T:Public Domain Courtesy of the Cyber Hymnal™
C:Robert B. Robertson, before 1913
Z:Public Domain
Z:Courtesy of the Cyber Hymnal™
%%score ( 1 2 ) 3
L:1/8
Q:1/4=95
M:3/4
K:D
V:1 treble 
V:2 treble 
V:3 bass 
V:1
 [DF]2 | [DF]>[DF] [DF]2 [DF]2 | [EG]>[EG] [EG]2 [DF]2 | [CE]>[CE] [CE]2 [CE]2 | %4
 [CA]>[EG] [DF]2 [DF]2 | [DE]4 [DB]2 | [CA]4 [EG]2 | [DF]>[CE] D2 [CE]2 | [DF]>[EG] [FA]2 [Fd]2 | %9
 [Ac]>[GB] [GA]2 [CE]2 | [EG]>[DF] [CE]2 [A,D]2 | [DF]4 [CE]2 | D4 |] %13
V:2
 x2 | x6 | x6 | x6 | x6 | x6 | x6 | x2 D2 x2 | x6 | x6 | x6 | x6 | D4 |] %13
V:3
 [D,A,]2 | [D,A,]>[D,A,] [D,A,]2 [D,A,]2 | [C,A,]>[C,A,] [C,A,]2 [D,A,]2 | %3
 [A,,A,]>[A,,A,] [A,,A,]2 [A,,A,]2 | [A,,A,]>[C,A,] [D,A,]2 [D,A,]2 | [E,^G,]4 [E,G,]2 | %6
 [A,,A,]4 [C,A,]2 | [D,A,]>[D,G,] [D,F,]2 [D,G,]2 | [D,A,]>[D,A,] [D,A,]2 [D,A,]2 | %9
 [A,,A,]>[B,,A,] [C,A,]2 [A,,G,]2 | [A,,A,]>[A,,A,] [A,,A,]2 [D,F,]2 | [A,,A,]4 [A,,G,]2 | %12
 [D,F,]4 |] %13

